X:417
T:Da Full Rigged Ship
T:Full Rigged Ship, The
R:jig
O:Shetland
Z:hn-jig-417
M:6/8
L:1/8
K:Ador
e2a aea | aea b2a | e2f ~g3 | gag f2d | 
e2a aea | aea b2a | g2e edB | A3 A3 :| 
|: efe edB | A2B c3 | BAG BAG | Bcd E3 | 
efe edB | A2B c2d | efe dBG | A3 A3 :|
|: EGE EGE | EGE c3 | EGE E2D | E2=F GEC | 
EGE EGE | EGE c2d | efe dBG | A3 A3 :|  

